source/svgs/bowtie/uEA25-log.svg

<svg xmlns="http://www.w3.org/2000/svg" viewBox="0 0 448 448" enable-background="new 0 0 448 448"><path d="M32 0v64h-32v32h32v64h-32v32h32v64h-32v32h32v64h-32v32h32v64h384v-448h-384zm352 416h-320v-32h32v-32h-32v-64h32v-32h-32v-64h32v-32h-32v-64h32v-32h-32v-32h320v384zm-32-352h-224v128h224v-128zm-32 96h-160v-64h160v64z"/></svg>

<svg xmlns="http://www.w3.org/2000/svg" viewBox="0 0 448 448"><path d="M32 0v64H0v32h32v64H0v32h32v64H0v32h32v64H0v32h32v64h384V0H32zm352 416H64v-32h32v-32H64v-64h32v-32H64v-64h32v-32H64V96h32V64H64V32h320v384zM352 64H128v128h224V64zm-32 96H160V96h160v64z"/></svg>
